X:1
T:The Cloakmakers' Union
M:4/4
L:1/8
K:F
 z4 z2 CC| F2 FG AG FE| D2 D2 GF ED| E2 cd cB AG| A F- F4C-C| F2 FG AG FE|\
 D2 DDG-F ED| E2 cd cB AG| A F- F4 cc| dd dd dc Bd| c3 A c3 c| dd dd dcB-d|\
 c3 A G2C-C| F2 FG AG FE| D2 DD GF ED| E2 cd cB AG| AF z C F2 z2|
